www/assets/icons/deck.svg

<svg xmlns="http://www.w3.org/2000/svg" width="24" height="24" viewBox="0 0 24 24" fill='currentColor'><path d="M22 9 12 2 2 9h9v13h2V9z"/><path d="m4.14 12-1.96.37.82 4.37V22h2l.02-4H7v4h2v-6H4.9zm14.96 4H15v6h2v-4h1.98l.02 4h2v-5.26l.82-4.37-1.96-.37z"/></svg>

<svg width="24" height="24" viewBox="0 0 24 24" xmlns="http://www.w3.org/2000/svg" fill='currentColor'><path d="M22 9L12 2L2 9H11V22H13V9H22Z"/><path d="M4.14 12L2.18 12.37L3 16.74V22H5L5.02 18H7V22H9V16H4.9L4.14 12Z"/><path d="M19.1 16H15V22H17V18H18.98L19 22H21V16.74L21.82 12.37L19.86 12L19.1 16Z"/></svg>
